!!!!SEGMENT: pl-sa--359-a-vii-119--001_anonim--mottetto-de-nativitate-gloria-in-excelsis.krn
!!!cenid: 17xx:1346
!!!COM: Anonim
!!!COM-rismid: pe30004985
!!!CDT:
!!!CNT:
!!!OPR: Mottetto de Nativitate
!!!OTL: Gloria in excelsis
!!!OMV: 001
!!!PDT: 1726
!!!AGN: Sacred; Motet; Christmas
!!!SMS-siglum: PL-SA
!!!SMS-shelfmark: 359/A VII 119
!!!SMS-shelfwork: 001-001 M
!!!SMS-variant: Violino 2do PL-SA 359/A VII 119:12
!!!SMS-altvar: Violino 2do PL-SA 359/A VII 119:14
!!!NIFC-rismid: 1001069972
!!!URL-scan: http://bc.bdsandomierz.pl/dlibra/publication/1663/edition/1631/content
!!!ONB-nifc: UWAGA: części Mottetto; 1. Gloria in excelsis, 2. Kuba Michał czy śpicie, 3. Pastuszkowie z wesołością, 4. Idźmy prędko
!!!key: C
**kern	**fba	**kern	**kern	**kern	**kern	**kern	**kern	**kern	**text	**kern	**text	**kern	**kern
*part11	*	*part10	*part9	*part8	*part7	*part6	*part5	*part4	*part4	*part3	*part3	*part2	*part1
*staff11	*	*staff10	*staff9	*staff8	*staff7	*staff6	*staff5	*staff4	*staff4	*staff3	*staff3	*staff2	*staff1
*I"Organo	*	*I"Viola	*I"Violino 2do	*I"Violino Primo	*I"Baſso	*I"Tenore	*I"Alto	*I"Canto 2do	*	*I"Canto Primo	*	*I"Clarino 2do	*I"Clarino 1mo
*I'org	*	*I'vla	*I'vl2	*I'vl1	*I'B	*I'T	*I'A	*I'S2	*	*I'S1	*	*I'clar2	*I'clar1
*Iorgan	*	*Iviola	*Ivioln	*Ivioln	*Ibass	*Itenor	*Ialto	*Isoprn	*	*Isoprn	*	*Itromp	*Itromp
*ICklav	*	*ICstr	*ICstr	*ICstr	*ICvox	*ICvox	*ICvox	*ICvox	*	*ICvox	*	*ICbras	*ICbras
*IGcont	*	*	*	*	*IGcoro	*IGcoro	*IGcoro	*IGcoro	*	*IGcoro	*	*	*
*clefF4	*	*clefF4	*clefG2	*clefG2	*clefF4	*clefC4	*clefC3	*clefC1	*	*clefC1	*	*clefG2	*clefG2
*k[]	*	*k[]	*k[]	*k[]	*k[]	*k[]	*k[]	*k[]	*	*k[]	*	*k[]	*k[]
*C:	*	*C:	*C:	*C:	*C:	*C:	*C:	*C:	*	*C:	*	*C:	*C:
*M2/2	*	*M2/2	*M2/2	*M2/2	*M2/2	*M2/2	*M2/2	*M2/2	*	*M2/2	*	*M2/2	*M2/2
*met(c|)	*	*met(c|)	*met(c|)	*met(c|)	*met(c|)	*met(c|)	*met(c|)	*met(c|)	*	*met(c|)	*	*met(c|)	*met(c|)
=1	=1	=1	=1	=1	=1	=1	=1	=1	=1	=1	=1	=1	=1
!LO:TX:t=P:problem:8\right:global	!	!LO:TX:t=P:problem:8\right:global	!	!	!	!	!	!	!	!	!	!	!
!LO:TX:t=P:problem:mixed beam	!	!LO:TX:t=P:problem:partia zapisana w kluczu basowym	!	!	!	!	!	!	!	!	!	!	!
!LO:TX:a:t=solo	!	!LO:TX:t=P:problem:mixed beam	!	!	!	!	!	!	!	!	!	!	!
!LO:TX:b:t=Gloria	!	!LO:TX:b:t=Gloria	!LO:TX:b:t=Gloria	!LO:TX:t=P:problem:brak pierwszej strony (na której jest Gloria)	!LO:TX:a:t=Gloria\nTacet	!LO:TX:a:t=Gloria\nTacet	!LO:TX:a:t=Gloria\nTacet	!LO:TX:t=P:problem:4, 8, 16 right:global	!	!LO:TX:t=P:problem:4, 8, 16 right:global	!	!LO:TX:a:t=Gloria\nTacet	!LO:TX:a:t=Gloria\nTacet
8C/L	.	8C/L	2r	1ryy	1ryy	1ryy	1ryy	16cc\LL	Glo-	16ee\LL	Glo-	1ryy	1ryy
.	.	.	.	.	.	.	.	16ee\	.	16gg\	.	.	.
8c\	.	8c\	.	.	.	.	.	16dd\	.	16ff\	.	.	.
.	.	.	.	.	.	.	.	16cc\JJ	.	16ee\JJ	.	.	.
8B\	6	8B\	.	.	.	.	.	16b\LL	.	16dd\LL	.	.	.
.	.	.	.	.	.	.	.	16b\	.	16dd\	.	.	.
8G\J	.	8G\J	.	.	.	.	.	16a\	.	16cc\	.	.	.
.	.	.	.	.	.	.	.	16b\JJ	.	16dd\JJ	.	.	.
!LO:TX:t=P:problem:mixed beam	!	!LO:TX:t=P:problem:mixed beam	!LO:TX:t=P:problem:8, 16 right:global	!	!	!	!	!	!	!	!	!	!
8c\L	.	8c\L	16cc\LL	.	.	.	.	8cc\	.	8ee\	.	.	.
.	.	.	16ee\	.	.	.	.	.	.	.	.	.	.
8C/J	.	8C/J	16dd\	.	.	.	.	16cc\	-ri-	16ee\	-ri-	.	.
.	.	.	16cc\JJ	.	.	.	.	16cc\	-a	16ee\	-a	.	.
8r	.	8r	16b\LL	.	.	.	.	4r	.	4r	.	.	.
.	.	.	16b\	.	.	.	.	.	.	.	.	.	.
8G\	.	8G\	16a\	.	.	.	.	.	.	.	.	.	.
.	.	.	16b\JJ	.	.	.	.	.	.	.	.	.	.
=2	=2	=2	=2	=2	=2	=2	=2	=2	=2	=2	=2	=2	=2
!LO:TX:t=P:problem:mixed beam	!	!LO:TX:t=P:problem:mixed beam	!LO:N:vis=16	!	!	!	!	!	!	!	!	!	!
8C/L	.	8C/L	8cc\L	1ryy	1ryy	1ryy	1ryy	16cc\LL	Glo-	16ee\LL	Glo-	1ryy	1ryy
.	.	.	.	.	.	.	.	16ee\	.	16gg\	.	.	.
8c\	.	8c\	16cc\L	.	.	.	.	16dd\	.	16ff\	.	.	.
.	.	.	16cc\JJ	.	.	.	.	16cc\JJ	.	16ee\JJ	.	.	.
8B\	6	8B\	4r	.	.	.	.	16b\LL	.	16dd\LL	.	.	.
.	.	.	.	.	.	.	.	16b\	.	16dd\	.	.	.
8G\J	.	8G\J	.	.	.	.	.	16a\	.	16cc\	.	.	.
.	.	.	.	.	.	.	.	16b\JJ	.	16dd\JJ	.	.	.
!LO:TX:t=P:problem:mixed beam	!	!LO:TX:t=P:problem:mixed beam	!	!	!	!	!	!	!	!	!	!	!
8c\L	.	8c\L	16cc\LL	.	.	.	.	8cc\	.	8ee\	.	.	.
.	.	.	16ee\	.	.	.	.	.	.	.	.	.	.
8C/J	.	8C/J	16dd\	.	.	.	.	16cc\	-ri-	16ee\	-ri-	.	.
.	.	.	16cc\JJ	.	.	.	.	16cc\	-a	16ee\	-a	.	.
8r	.	8r	16b\LL	.	.	.	.	8r	.	8r	.	.	.
.	.	.	16b\	.	.	.	.	.	.	.	.	.	.
8E\	6	8E\	16a\	.	.	.	.	16cc\	in	16ee\	in	.	.
.	.	.	16b\JJ	.	.	.	.	16b\	ex-	16dd\	ex-	.	.
=3	=3	=3	=3	=3	=3	=3	=3	=3	=3	=3	=3	=3	=3
!	!	!	!LO:N:vis=16	!	!	!	!	!	!	!	!	!	!
8F\L	.	8F\L	8cc\L	1ryy	1ryy	1ryy	1ryy	16a\LL	-cel-	16cc\LL	-cel-	1ryy	1ryy
.	.	.	.	.	.	.	.	16a\	.	16cc\	.	.	.
8E\	6	8E\	16cc\L	.	.	.	.	16b\	.	16dd\	.	.	.
.	.	.	16cc\JJ	.	.	.	.	16cc\JJ	.	16ee\JJ	.	.	.
8D\	6	8D\	4r	.	.	.	.	16dd\LL	.	16ff\LL	.	.	.
.	.	.	.	.	.	.	.	16dd\	.	16ff\	.	.	.
8C\J	.	8C\J	.	.	.	.	.	16cc\	.	16ee\	.	.	.
.	.	.	.	.	.	.	.	16dd\JJ	.	16ff\JJ	.	.	.
!	!	!	!	!	!	!	!	!	!	!LO:LB:g=original	!	!	!
8GG/L	.	8GG/L	16b\LL	.	.	.	.	8b\	.	8dd\	.	.	.
.	.	.	16b\	.	.	.	.	.	.	.	.	.	.
8AA/	.	8AA/	16cc\	.	.	.	.	8b\	-sis	8dd\	-sis	.	.
.	.	.	16dd\JJ	.	.	.	.	.	.	.	.	.	.
!	!	!	!	!	!	!	!	!LO:LB:g=original	!	!	!	!	!
8BB/	.	8BB/	16b\LL	.	.	.	.	8r	.	8r	.	.	.
.	.	.	16b\	.	.	.	.	.	.	.	.	.	.
8GG/J	.	8GG/J	16a\	.	.	.	.	16dd\	in	16gg\	in	.	.
.	.	.	16b\JJ	.	.	.	.	16dd\	ex-	16ff\	ex-	.	.
=4	=4	=4	=4	=4	=4	=4	=4	=4	=4	=4	=4	=4	=4
!	!	!LO:TX:t=P:problem:mixed beam	!	!	!	!	!	!	!	!	!	!	!
8C\L	.	8C/L	8cc\L	1ryy	1ryy	1ryy	1ryy	16cc\LL	-cel-	16ee\LL	-cel-	1ryy	1ryy
.	.	.	.	.	.	.	.	16cc\	.	16ee\	.	.	.
8G\J	.	8G\J	8cc\J	.	.	.	.	16b\	.	16dd\	.	.	.
.	.	.	.	.	.	.	.	16cc\JJ	.	16ee\JJ	.	.	.
8D\L	6	8D\L	4r	.	.	.	.	16dd\LL	.	16ff\LL	.	.	.
.	.	.	.	.	.	.	.	16dd\	.	16ff\	.	.	.
16E\L	6	16E\L	.	.	.	.	.	16cc\	.	16ee\	.	.	.
16F\JJ	6 5	16F\JJ	.	.	.	.	.	16dd\JJ	.	16ff\JJ	.	.	.
!LO:TX:t=P:problem:mixed beam	!	!LO:TX:t=P:problem:mixed beam	!	!	!	!	!	!	!	!	!	!	!
8G\L	.	8G\L	4r	.	.	.	.	16b\LL	.	16dd\LL	.	.	.
.	.	.	.	.	.	.	.	16b\	.	16dd\	.	.	.
8GG/J	.	8GG/J	.	.	.	.	.	16a\	.	16cc\	.	.	.
.	.	.	.	.	.	.	.	16b\JJ	.	16dd\JJ	.	.	.
4C/	.	4C/	16cc\LL	.	.	.	.	8cc\	.	8ee\	.	.	.
.	.	.	16cc\	.	.	.	.	.	.	.	.	.	.
.	.	.	16b\	.	.	.	.	8cc\	-sis	8cc\	-sis	.	.
.	.	.	16cc\JJ	.	.	.	.	.	.	.	.	.	.
!	!	!	!LO:LB:g=original	!	!	!	!	!	!	!	!	!	!
=5	=5	=5	=5	=5	=5	=5	=5	=5	=5	=5	=5	=5	=5
8GG/L	.	8GG/L	16b\LL	1ryy	1ryy	1ryy	1ryy	16b\LL	in	16dd\LL	in	1ryy	1ryy
.	.	.	16b\	.	.	.	.	16cc\JJ	.	16ee\JJ	.	.	.
8AA/	.	8AA/	16a\	.	.	.	.	16b\LL	ex-	16dd\LL	ex-	.	.
.	.	.	16b\JJ	.	.	.	.	16a\JJ	.	16cc\JJ	.	.	.
8BB/	.	8BB/	8g/L	.	.	.	.	8b\	-cel-	8dd\	-cel-	.	.
8C/J	.	8C/J	8g/J	.	.	.	.	16a\LL	-sis	16cc\LL	-sis	.	.
.	.	.	.	.	.	.	.	16g\JJ	.	16b\JJ	.	.	.
!LO:LB:g=original	!	!	!	!	!	!	!	!	!	!	!	!	!
!LO:TX:t=P:problem:mixed beam	!	!LO:LB:g=original	!	!	!	!	!	!	!	!	!	!	!
8D\L	#	8D/L	4r	.	.	.	.	8.g/L	De-	8b\L	De-	.	.
8DD/J	.	8DD/J	.	.	.	.	.	.	.	16a\L	.	.	.
.	.	.	.	.	.	.	.	16f#X/Jk	.	16g\JJ	.	.	.
!LO:TX:t=P:problem:mixed beam	!	!LO:TX:t=P:problem:mixed beam	!	!	!	!	!	!	!	!	!	!	!
8GG/L	.	8GG/L	16b\LL	.	.	.	.	4g/	-o	4g/	-o	.	.
.	.	.	16dd\	.	.	.	.	.	.	.	.	.	.
8G\J	.	8G\J	16cc\	.	.	.	.	.	.	.	.	.	.
.	.	.	16b\JJ	.	.	.	.	.	.	.	.	.	.
=6	=6	=6	=6	=6	=6	=6	=6	=6	=6	=6	=6	=6	=6
!	!	!LO:TX:t=P:problem:mixed beam	!	!	!	!	!	!	!	!	!	!	!
8F#X\L	6	8F#X\L	16a/LL	1ryy	1ryy	1ryy	1ryy	4r	.	4r	.	1ryy	1ryy
.	.	.	16a/	.	.	.	.	.	.	.	.	.	.
8D\	.	8D\	16g/	.	.	.	.	.	.	.	.	.	.
.	.	.	16a/JJ	.	.	.	.	.	.	.	.	.	.
!LO:TX:t=P:problem:mixed beam	!	!	!	!	!	!	!	!	!	!	!	!	!
8G\	.	8G\	8b/L	.	.	.	.	16g\LL	Glo-	16b\LL	Glo-	.	.
.	.	.	.	.	.	.	.	16b\	.	16dd\	.	.	.
8GG/J	.	8GG/J	16b/L	.	.	.	.	16a\	.	16cc\	.	.	.
.	.	.	16b/JJ	.	.	.	.	16g\JJ	.	16b\JJ	.	.	.
!	!	!	!	!	!	!	!	!	!	!LO:LB:g=original	!	!	!
8r	.	8r	4r	.	.	.	.	16f#X/LL	.	16a\LL	.	.	.
.	.	.	.	.	.	.	.	16f#/	.	16a\	.	.	.
8D/	#	8D/	.	.	.	.	.	16e/	.	16g\	.	.	.
.	.	.	.	.	.	.	.	16f#/JJ	.	16a\JJ	.	.	.
!LO:TX:t=P:problem:mixed beam	!	!LO:TX:t=P:problem:mixed beam	!	!	!	!	!	!	!	!	!	!	!
8GG/L	.	8GG/L	16b\LL	.	.	.	.	8g/	.	8b\	.	.	.
.	.	.	16dd\	.	.	.	.	.	.	.	.	.	.
8G/J	.	8G\J	16cc\	.	.	.	.	16g/	-ri-	16b\	-ri-	.	.
.	.	.	16b\JJ	.	.	.	.	16g/	-a	16b\	-a	.	.
!	!	!	!	!	!	!	!	!LO:LB:g=original	!	!	!	!	!
=7	=7	=7	=7	=7	=7	=7	=7	=7	=7	=7	=7	=7	=7
!LO:TX:t=P:problem:mixed beam	!	!LO:TX:t=P:problem:mixed beam	!	!	!	!	!	!	!	!	!	!	!
8F#X\L	.	8F#X\L	16a/LL	1ryy	1ryy	1ryy	1ryy	4r	.	4r	.	1ryy	1ryy
.	.	.	16a/	.	.	.	.	.	.	.	.	.	.
8D\	.	8D\	16g/	.	.	.	.	.	.	.	.	.	.
.	.	.	16a/JJ	.	.	.	.	.	.	.	.	.	.
8G\	.	8G\	8b/L	.	.	.	.	16g\LL	glo-	16b\LL	glo-	.	.
.	.	.	.	.	.	.	.	16b\	.	16dd\	.	.	.
8GG/J	.	8GG/J	16b/L	.	.	.	.	16a\	.	16cc\	.	.	.
.	.	.	16b/JJ	.	.	.	.	16g\JJ	.	16b\JJ	.	.	.
8r	.	8r	4r	.	.	.	.	16f#X/LL	.	16a\LL	.	.	.
.	.	.	.	.	.	.	.	16f#/	.	16a\	.	.	.
8D/	#	8D/	.	.	.	.	.	16e/	.	16g\	.	.	.
.	.	.	.	.	.	.	.	16f#/JJ	.	16a\JJ	.	.	.
!LO:TX:t=P:problem:mixed beam	!	!LO:TX:t=P:problem:mixed beam	!	!	!	!	!	!	!	!	!	!	!
8G\L	.	8G\L	8b/L	.	.	.	.	8g/	.	8b\	.	.	.
8GG/J	.	8GG/J	8b/J	.	.	.	.	16g/	-ri-	16b\	-ri-	.	.
.	.	.	.	.	.	.	.	16g/	-a	16b\	-a	.	.
=8	=8	=8	=8	=8	=8	=8	=8	=8	=8	=8	=8	=8	=8
!LO:TX:t=P:problem:mixed beam	!	!LO:TX:t=P:problem:mixed beam	!	!	!	!	!	!	!	!	!	!	!
8G\L	.	8G\L	16b\LL	1ryy	1ryy	1ryy	1ryy	4r	.	4r	.	1ryy	1ryy
.	.	.	16cc\	.	.	.	.	.	.	.	.	.	.
8GG/J	.	8GG/J	16b\	.	.	.	.	.	.	.	.	.	.
.	.	.	16cc\JJ	.	.	.	.	.	.	.	.	.	.
8r	.	8r	16b\LL	.	.	.	.	8b\	in	8dd\	in	.	.
.	.	.	16cc\	.	.	.	.	.	.	.	.	.	.
8G\	.	8G\	16b\	.	.	.	.	8b\	ex-	8dd\	ex-	.	.
.	.	.	16cc\JJ	.	.	.	.	.	.	.	.	.	.
!LO:TX:t=P:problem:mixed beam	!	!LO:TX:t=P:problem:mixed beam	!LO:LB:g=original	!	!	!	!	!	!	!	!	!	!
8GG/L	.	8GG/L	16b\LL	.	.	.	.	16b\LL	-cel-	16dd\LL	-cel-	.	.
.	.	.	16b\	.	.	.	.	16cc\	.	16ee\	.	.	.
8G\	.	8G\	16b\	.	.	.	.	16b\	.	16dd\	.	.	.
.	.	.	16b\JJ	.	.	.	.	16cc\JJ	.	16ee\JJ	.	.	.
8F#X\	6	8F#X\	16dd\LL	.	.	.	.	16a\LL	.	16dd\LL	.	.	.
.	.	.	16dd\	.	.	.	.	16b\	.	16ee\	.	.	.
!	!	!LO:TX:t=P:problem:brak kreski	!	!	!	!	!	!	!	!	!	!	!
8D\J	.	8D\J	16dd\	.	.	.	.	16a\	.	16dd\	.	.	.
.	.	.	16dd\JJ	.	.	.	.	16cc\JJ	.	16ee\JJ	.	.	.
=9	=9	=9	=9	=9	=9	=9	=9	=9	=9	=9	=9	=9	=9
!LO:TX:t=P:problem:mixed beam	!	!LO:TX:t=P:problem:brak pół taktu	!	!	!	!	!	!	!	!	!	!	!
8GG/L	.	2ryy	16b\LL	1ryy	1ryy	1ryy	1ryy	16b\LL	.	16dd\LL	.	1ryy	1ryy
.	.	.	16b\	.	.	.	.	16cc\	.	16ee\	.	.	.
8G\	.	.	16b\	.	.	.	.	16b\	.	16dd\	.	.	.
.	.	.	16b\JJ	.	.	.	.	16cc\JJ	.	16ee\JJ	.	.	.
8F#X\	6	.	16dd\LL	.	.	.	.	16a\LL	.	16dd\LL	.	.	.
.	.	.	16dd\	.	.	.	.	16b\	.	16ee\JJ	.	.	.
!	!	!	!	!	!	!	!	!	!	!LO:LB:g=original	!	!	!
8D\J	.	.	16dd\	.	.	.	.	16a\	.	16dd\LL	.	.	.
.	.	.	16dd\JJ	.	.	.	.	16cc\JJ	.	16ee\JJ	.	.	.
!LO:TX:t=P:problem:mixed beam	!	!LO:TX:t=P:problem:mixed beam	!	!	!	!	!	!	!	!	!	!	!
8G\L	.	8G\L	8b\	.	.	.	.	8b\	.	8dd\	.	.	.
8GG/J	.	8GG/J	8r	.	.	.	.	8b\	-sis	8dd\	-sis	.	.
8r	.	8r	8cc\L	.	.	.	.	4r	.	4r	.	.	.
8A\	.	8A\	8cc\J	.	.	.	.	.	.	.	.	.	.
!LO:LB:g=original	!	!	!	!	!	!	!	!	!	!	!	!	!
=10	=10	=10	=10	=10	=10	=10	=10	=10	=10	=10	=10	=10	=10
!LO:TX:t=P:problem:mixed beam	!	!LO:TX:t=P:problem:mixed beam	!	!	!	!	!	!	!	!	!	!	!
8A\L	.	8A\L	16cc\LL	1ryy	1ryy	1ryy	1ryy	8cc\	in	8ee\	in	1ryy	1ryy
.	.	.	16dd\	.	.	.	.	.	.	.	.	.	.
8AA/J	.	8AA/J	16cc\	.	.	.	.	8cc\	ex-	8ee\	ex-	.	.
.	.	.	16dd\JJ	.	.	.	.	.	.	.	.	.	.
8r	.	8r	16cc\LL	.	.	.	.	16cc\LL	-cel-	16ee\LL	-cel-	.	.
.	.	.	16dd\	.	.	.	.	16dd\	.	16ff\	.	.	.
8A\	.	8A\	16cc\	.	.	.	.	16cc\	.	16ee\	.	.	.
.	.	.	16dd\JJ	.	.	.	.	16dd\JJ	.	16ff\JJ	.	.	.
!	!	!LO:LB:g=original	!	!	!	!	!	!	!	!	!	!	!
!LO:TX:t=P:problem:mixed beam	!	!LO:TX:t=P:problem:mixed beam	!	!	!	!	!	!LO:LB:g=original	!	!	!	!	!
8AA/L	.	8AA/L	16cc\LL	.	.	.	.	16cc\LL	.	16ee\LL	.	.	.
.	.	.	16cc\	.	.	.	.	16dd\	.	16ff\	.	.	.
8A\	.	8A\	16cc\	.	.	.	.	16cc\	.	16ee\	.	.	.
.	.	.	16cc\JJ	.	.	.	.	16dd\JJ	.	16ff\JJ	.	.	.
8G#X\	6	8G#X\	16ee\LL	.	.	.	.	16b\LL	.	16ee\LL	.	.	.
.	.	.	16ee\	.	.	.	.	16cc\	.	16ff\	.	.	.
8E\J	.	8E\J	16ee\	.	.	.	.	16b\	.	16ee\	.	.	.
.	.	.	16ee\JJ	.	.	.	.	16dd\JJ	.	16ff\JJ	.	.	.
=11	=11	=11	=11	=11	=11	=11	=11	=11	=11	=11	=11	=11	=11
!LO:TX:t=P:problem:mixed beam	!	!LO:TX:t=P:problem:mixed beam	!	!	!	!	!	!	!	!	!	!	!
8AA/L	.	8AA/L	16cc\LL	1ryy	1ryy	1ryy	1ryy	16cc\LL	.	16ee\LL	.	1ryy	1ryy
.	.	.	16cc\	.	.	.	.	16dd\	.	16ff\	.	.	.
8A\	.	8A\	16cc\	.	.	.	.	16cc\	.	16ee\	.	.	.
.	.	.	16cc\JJ	.	.	.	.	16dd\JJ	.	16ff\JJ	.	.	.
!	!	!	!LO:LB:g=original	!	!	!	!	!	!	!	!	!	!
8G#X\	.	8G#X\	16ee\LL	.	.	.	.	16b\LL	.	16ee\LL	.	.	.
.	.	.	16ee\	.	.	.	.	16cc\	.	16ff\	.	.	.
8E\J	.	8E\J	16ee\	.	.	.	.	16b\	.	16ee\	.	.	.
.	.	.	16ee\JJ	.	.	.	.	16dd\JJ	.	16ff\JJ	.	.	.
!LO:TX:t=P:problem:mixed beam	!	!LO:TX:t=P:problem:mixed beam	!	!	!	!	!	!	!	!	!	!	!
8A\L	.	8A\L	8cc\	.	.	.	.	8cc\	.	8ee\	.	.	.
8AA/J	.	8AA/J	8r	.	.	.	.	8cc\	-sis	8ee\	-sis	.	.
8r	.	8r	8ee\L	.	.	.	.	4r	.	4r	.	.	.
8c\	.	8c\	8ee\J	.	.	.	.	.	.	.	.	.	.
=12	=12	=12	=12	=12	=12	=12	=12	=12	=12	=12	=12	=12	=12
!LO:TX:t=P:problem:mixed beam	!	!LO:TX:t=P:problem:mixed beam	!	!	!	!	!	!	!	!	!	!	!
8c\L	.	8c\L	16ee\LL	1ryy	1ryy	1ryy	1ryy	8ee\	in	8gg\	in	1ryy	1ryy
.	.	.	16ff\	.	.	.	.	.	.	.	.	.	.
8C/J	.	8C/J	16ee\	.	.	.	.	8ee\	ex-	8gg\	ex-	.	.
.	.	.	16ff\JJ	.	.	.	.	.	.	.	.	.	.
8r	.	8r	16ee\LL	.	.	.	.	16ee\LL	-cel-	16gg\LL	-cel-	.	.
.	.	.	16ff\	.	.	.	.	16ff\	.	16aa\	.	.	.
8c\	.	8c\	16ee\	.	.	.	.	16ee\	.	16gg\	.	.	.
.	.	.	16ff\JJ	.	.	.	.	16ff\JJ	.	16aa\JJ	.	.	.
!LO:TX:t=P:problem:mixed beam	!	!LO:TX:t=P:problem:mixed beam	!	!	!	!	!	!	!	!	!	!	!
8C/L	.	8C/L	16cc\LL	.	.	.	.	16ee\LL	.	16gg\LL	.	.	.
.	.	.	16ee\	.	.	.	.	16ff\	.	16aa\	.	.	.
8c\	.	8c\	16cc\	.	.	.	.	16ee\	.	16gg\	.	.	.
.	.	.	16g\JJ	.	.	.	.	16ff\JJ	.	16aa\JJ	.	.	.
!	!	!	!	!	!	!	!	!	!	!LO:LB:g=original	!	!	!
8B\	6	8B\	16b\LL	.	.	.	.	16dd\LL	.	16gg\LL	.	.	.
.	.	.	16dd\	.	.	.	.	16ee\	.	16aa\	.	.	.
8G\J	.	8G\J	16b\	.	.	.	.	16dd\	.	16gg\	.	.	.
.	.	.	16g\JJ	.	.	.	.	16ff\JJ	.	16aa\JJ	.	.	.
=13	=13	=13	=13	=13	=13	=13	=13	=13	=13	=13	=13	=13	=13
!LO:TX:t=P:problem:mixed beam	!	!LO:TX:t=P:problem:mixed beam	!	!	!	!	!	!	!	!	!	!	!
8C/L	.	8C/L	16cc\LL	1ryy	1ryy	1ryy	1ryy	16ee\LL	.	16gg\LL	.	1ryy	1ryy
.	.	.	16ee\	.	.	.	.	16ff\	.	16aa\	.	.	.
8c\	.	8c\	16cc\	.	.	.	.	16ee\	.	16gg\	.	.	.
.	.	.	16g\JJ	.	.	.	.	16ff\JJ	.	16aa\JJ	.	.	.
8B\	6	8B\	16b\LL	.	.	.	.	16dd\LL	.	16gg\LL	.	.	.
.	.	.	16dd\	.	.	.	.	16ee\	.	16aa\	.	.	.
8G\J	.	8G\J	16b\	.	.	.	.	16dd\	.	16gg\	.	.	.
.	.	.	16g\JJ	.	.	.	.	16ff\JJ	.	16aa\JJ	.	.	.
!LO:TX:t=P:problem:mixed beam	!	!LO:TX:t=P:problem:mixed beam	!	!	!	!	!	!	!	!	!	!	!
8c\L	.	8c\L	16cc\LL	.	.	.	.	8ee\	.	8gg\	.	.	.
.	.	.	16cc\	.	.	.	.	.	.	.	.	.	.
8C/J	.	8C/J	16ee\	.	.	.	.	8ee\	-sis	8gg\	-sis	.	.
.	.	.	16cc\JJ	.	.	.	.	.	.	.	.	.	.
!	!	!	!	!	!	!	!	!LO:LB:g=original	!	!	!	!	!
8E\L	6	8E\L	16cc\LL	.	.	.	.	8cc\	in	8ee\	in	.	.
.	.	.	16ee\	.	.	.	.	.	.	.	.	.	.
8F\J	6 5	8F\J	16ff\	.	.	.	.	(16b\LL	ex-	16dd\LL	ex-	.	.
.	.	.	16ee\JJ	.	.	.	.	16a\JJ)	.	16cc\JJ	.	.	.
=14	=14	=14	=14	=14	=14	=14	=14	=14	=14	=14	=14	=14	=14
!LO:TX:t=P:problem:mixed beam	!	!LO:TX:t=P:problem:mixed beam	!	!	!	!	!	!	!	!	!	!	!
8G\L	6 4	8G\L	16dd\LL	1ryy	1ryy	1ryy	1ryy	8.b\	-cel-	8dd\	-cel-	1ryy	1ryy
.	.	.	16dd\	.	.	.	.	.	.	.	.	.	.
8F\	.	8F\	16ee\	.	.	.	.	.	.	8ee\	-sis	.	.
.	.	.	16ee\JJ	.	.	.	.	16cc\	-sis	.	.	.	.
!	!	!	!LO:LB:g=original	!	!	!	!	!	!	!	!	!	!
8G\	5 3	8G\	16ee\LL	.	.	.	.	8.cc\L	De-	4dd\	De-	.	.
.	.	.	16ee\	.	.	.	.	.	.	.	.	.	.
8GG/J	.	8GG/J	16dd\	.	.	.	.	.	.	.	.	.	.
.	.	.	16dd\JJ	.	.	.	.	16b\Jk	.	.	.	.	.
!LO:TX:t=P:problem:mixed beam	!	!LO:TX:t=P:problem:mixed beam	!	!	!	!	!	!	!	!	!	!	!
8C\L	.	8C\L	16ee\LL	.	.	.	.	4cc\	-o	4cc\	-o	.	.
.	.	.	16ee\	.	.	.	.	.	.	.	.	.	.
8F\	6 5	8F\	16ee\	.	.	.	.	.	.	.	.	.	.
.	.	.	16ee\JJ	.	.	.	.	.	.	.	.	.	.
8G\	4	8G\	16dd\LL	.	.	.	.	8b\	in	8dd\	in	.	.
.	.	.	16dd\	.	.	.	.	.	.	.	.	.	.
8GG/J	3	8GG/J	16dd\	.	.	.	.	8b\	ex-	8dd\	ex-	.	.
.	.	.	16dd\JJ	.	.	.	.	.	.	.	.	.	.
!LO:LB:g=original	!	!	!	!	!	!	!	!	!	!	!	!	!
=15	=15	=15	=15	=15	=15	=15	=15	=15	=15	=15	=15	=15	=15
!LO:TX:t=P:problem:mixed beam	!	!LO:TX:t=P:problem:mixed beam	!	!	!	!	!	!	!	!	!	!	!
8C\L	.	8C\L	16ee\LL	1ryy	1ryy	1ryy	1ryy	16cc\LL	-cel-	(16ee\LL	-cel-	1ryy	1ryy
.	.	.	16dd\	.	.	.	.	16b\JJ	.	16dd\)	.	.	.
8F\	6 5	8F\	16ee\	.	.	.	.	16cc\LL	-sis	(16ee\	-sis	.	.
.	.	.	16cc\JJ	.	.	.	.	16dd\JJ	.	16ff\JJ)	.	.	.
8G\	4	8G\	16ee\LL	.	.	.	.	8.cc\L	De-	4dd\	De-	.	.
.	.	.	16ee\	.	.	.	.	.	.	.	.	.	.
8GG/J	3	8GG/J	16dd\	.	.	.	.	.	.	.	.	.	.
.	.	.	16dd\JJ	.	.	.	.	16b\Jk	.	.	.	.	.
!	!	!	!LO:TX:t=P:problem:2\right	!	!	!	!	!LO:TX:t=P:problem:2\right	!	!LO:TX:t=P:problem:2\right	!	!	!
*	*	*	*2\right	*	*	*	*	*2\right	*	*2\right	*	*	*
2C/	.	2C/	2ee\	.	.	.	.	2cc\	-o	2cc\	-o	.	.
==	==	==	==	==	==	==	==	==	==	==	==	==	==
*-	*-	*-	*-	*-	*-	*-	*-	*-	*-	*-	*-	*-	*-
!!!system-decoration: [(s1,s2)][(s3,s4,s5,s6,s7)][(s8,s9,s10)]s11
!!!ENC:Andrzej Borzym
!!!END:2020-11-28
!!!EED: Andrzej Borzym
!!!EST: 2021-12-29
